; generated by PrusaSlicer 2.6.0-alpha4+win64 on 2024-07-22 at 10:05:35 UTC

; This is a profile based on the E3D ToolChanger and the Hemera (Formerly Hermes) dual-drive direct extruder

; external perimeters extrusion width = 2.25mm
; perimeters extrusion width = 2.25mm
; infill extrusion width = 2.25mm
; solid infill extrusion width = 2.25mm
; top infill extrusion width = 2.00mm
; first layer extrusion width = 1.80mm

M106 S0
M190 S60 ; set bed temperature and wait for it to be reached
M104 S215 ; set temperature
;TYPE:Custom
M109 S215 ; set temperature and wait for it to be reached
G21 ; set units to millimeters
G90 ; use absolute coordinates
M82 ; use absolute distances for extrusion
G92 E0
M106 S0
;LAYER_CHANGE
;Z:1.5
;HEIGHT:1.5
G1 Z1.5 F9000
G1 X60.122 Y60.122
;TYPE:Perimeter
;WIDTH:1.8
G1 F1800
G1 X39.878 Y60.122 E18.66056
G1 X39.878 Y39.878 E37.32112
G1 X60.122 Y39.878 E55.98168
G1 X60.122 Y59.822 E74.3657
G92 E0
G1 X61.6 Y61.6 F9000
;TYPE:External perimeter
G1 F1800
G1 X38.4 Y61.6 E21.38534
G1 X38.4 Y38.4 E42.77068
G1 X61.6 Y38.4 E64.15602
G1 X61.6 Y61.3 E85.26483
G1 X59.668 Y61.082 F9000
G92 E0
G1 X59.002 Y59.678
;TYPE:Solid infill
;WIDTH:1.82227
G1 F1800
G1 X59.002 Y40.987 E17.48861
G1 X57.502 Y40.987 E18.89212
G1 X57.502 Y59.013 E35.75851
G1 X56.001 Y59.013 E37.16295
G1 X56.001 Y40.987 E54.02934
G1 X54.501 Y40.987 E55.43285
G1 X54.501 Y59.013 E72.29924
G1 X53.001 Y59.013 E73.70275
G1 X53.001 Y40.987 E90.56914
G1 X51.5 Y40.987 E91.97358
G1 X51.5 Y59.013 E108.83997
G1 X50 Y59.013 E110.24348
G1 X50 Y40.987 E127.10987
G1 X48.5 Y40.987 E128.51338
G1 X48.5 Y59.013 E145.37977
G1 X46.999 Y59.013 E146.78421
G1 X46.999 Y40.987 E163.6506
G1 X45.499 Y40.987 E165.05411
G1 X45.499 Y59.013 E181.9205
G1 X43.998 Y59.013 E183.32494
G1 X43.998 Y40.987 E200.19133
G1 X42.498 Y40.987 E201.59484
G1 X42.498 Y59.013 E218.46123
G1 X40.998 Y59.013 E219.86474
G1 X40.998 Y40.322 E237.35335
;LAYER_CHANGE
;Z:2.5
;HEIGHT:1
G1 Z2.5 F9000
G92 E0
G1 X59.34 Y59.34
;TYPE:Perimeter
;WIDTH:2.25
G1 F3600
G1 X40.66 Y59.34 E15.80739
G1 X40.66 Y40.66 E31.61478
G1 X59.34 Y40.66 E47.42217
G1 X59.34 Y59.04 E62.9757
G92 E0
G1 X61.375 Y61.375 F9000
;TYPE:External perimeter
G1 F3600
G1 X38.625 Y61.375 E19.25151
G1 X38.625 Y38.625 E38.50302
G1 X61.375 Y38.625 E57.75453
G1 X61.375 Y61.075 E76.75217
G1 X59.443 Y60.857 F9000
G92 E0
G1 X41.271 Y57.727
;TYPE:Solid infill
;WIDTH:2.42229
G1 F3600
G1 X57.813 Y57.727 E15.18307
G1 X57.813 Y55.519 E17.20968
G1 X42.187 Y55.519 E31.552
G1 X42.187 Y53.311 E33.57861
G1 X57.813 Y53.311 E47.92093
G1 X57.813 Y51.104 E49.94662
G1 X42.187 Y51.104 E64.28894
G1 X42.187 Y48.896 E66.31555
G1 X57.813 Y48.896 E80.65787
G1 X57.813 Y46.688 E82.68448
G1 X42.187 Y46.688 E97.0268
G1 X42.187 Y44.481 E99.05249
G1 X57.813 Y44.481 E113.39481
G1 X57.813 Y42.273 E115.42142
G1 X41.271 Y42.273 E130.60449
;LAYER_CHANGE
;Z:3.5
;HEIGHT:1
G1 Z3.5 F9000
G92 E0
G1 X59.34 Y59.34
;TYPE:Perimeter
;WIDTH:2.25
G1 F3600
G1 X40.66 Y59.34 E15.80739
G1 X40.66 Y40.66 E31.61478
G1 X59.34 Y40.66 E47.42217
G1 X59.34 Y59.04 E62.9757
G92 E0
G1 X61.375 Y61.375 F9000
;TYPE:External perimeter
G1 F3600
G1 X38.625 Y61.375 E19.25151
G1 X38.625 Y38.625 E38.50302
G1 X61.375 Y38.625 E57.75453
G1 X61.375 Y61.075 E76.75217
G1 X59.443 Y60.857 F9000
G92 E0
G1 X57.727 Y58.729
;TYPE:Solid infill
;WIDTH:2.42229
G1 F3600
G1 X57.727 Y42.187 E15.18308
G1 X55.519 Y42.187 E17.20969
G1 X55.519 Y57.813 E31.55201
G1 X53.311 Y57.813 E33.57862
G1 X53.311 Y42.187 E47.92094
G1 X51.104 Y42.187 E49.94664
G1 X51.104 Y57.813 E64.28896
G1 X48.896 Y57.813 E66.31557
G1 X48.896 Y42.187 E80.65789
G1 X46.688 Y42.187 E82.6845
G1 X46.688 Y57.813 E97.02682
G1 X44.481 Y57.813 E99.05252
G1 X44.481 Y42.187 E113.39484
G1 X42.273 Y42.187 E115.42145
G1 X42.273 Y58.729 E130.60453
;LAYER_CHANGE
;Z:4.5
;HEIGHT:1
G1 Z4.5 F9000
G92 E0
G1 X59.34 Y59.34
;TYPE:Perimeter
;WIDTH:2.25
G1 F3600
G1 X40.66 Y59.34 E15.80739
G1 X40.66 Y40.66 E31.61478
G1 X59.34 Y40.66 E47.42217
G1 X59.34 Y59.04 E62.9757
G92 E0
G1 X61.375 Y61.375 F9000
;TYPE:External perimeter
G1 F3600
G1 X38.625 Y61.375 E19.25151
G1 X38.625 Y38.625 E38.50302
G1 X61.375 Y38.625 E57.75453
G1 X61.375 Y61.075 E76.75217
G1 X59.443 Y60.857 F9000
G92 E0
G1 X57.813 Y51.802
;TYPE:Internal infill
G1 F7200
G1 X57.813 Y57.813 E5.08663
G1 X51.612 Y57.813 E10.33404
G1 X52.027 Y57.586 E10.73432
G1 X52.481 Y57.113 E11.28912
G1 X52.84 Y56.546 E11.85702
G1 X53.106 Y55.885 E12.45996
G1 X53.247 Y55.1 E13.13487
G1 X53.224 Y54.15 E13.93901
G1 X53.121 Y53.121 E14.81412
G1 X53.205 Y52.278 E15.53102
G1 X53.532 Y51.679 E16.10852
G1 X54.005 Y51.226 E16.66274
G1 X54.573 Y50.866 E17.2318
G1 X55.233 Y50.6 E17.83396
G1 X56.018 Y50.459 E18.50887
G1 X56.968 Y50.482 E19.31301
G1 X57.813 Y50.567 E20.03167
G1 X57.813 Y44.2 E25.41955
G1 X57.586 Y44.614 E25.81909
G1 X57.113 Y45.068 E26.37389
G1 X56.546 Y45.427 E26.94179
G1 X55.885 Y45.693 E27.54473
G1 X55.1 Y45.835 E28.21979
G1 X54.15 Y45.812 E29.02393
G1 X53.121 Y45.708 E29.89913
G1 X52.278 Y45.792 E30.61603
G1 X51.679 Y46.12 E31.19393
G1 X51.226 Y46.593 E31.74815
G1 X50.866 Y47.16 E32.3165
G1 X50.6 Y47.821 E32.91944
G1 X50.459 Y48.606 E33.59435
G1 X50.482 Y49.556 E34.39849
G1 X50.585 Y50.585 E35.2736
G1 X50.502 Y51.428 E35.99041
G1 X50.174 Y52.027 E36.56831
G1 X49.701 Y52.481 E37.12311
G1 X49.134 Y52.84 E37.69101
G1 X48.473 Y53.106 E38.29395
G1 X47.688 Y53.247 E38.96886
G1 X46.738 Y53.224 E39.773
G1 X45.708 Y53.121 E40.64895
G1 X44.866 Y53.205 E41.365
G1 X44.267 Y53.532 E41.9425
G1 X43.813 Y54.005 E42.4973
G1 X43.454 Y54.573 E43.06591
G1 X43.188 Y55.233 E43.66807
G1 X43.047 Y56.018 E44.34298
G1 X43.07 Y56.968 E45.14712
G1 X43.155 Y57.813 E45.86578
G1 X50.594 Y57.813 E52.16081
G92 E0
G1 X42.187 Y44.115 F9000
G1 F7200
G1 X42.187 Y42.187 E1.63151
G1 X43.074 Y42.187 E2.38211
G1 X43.173 Y43.173 E3.22068
G1 X43.089 Y44.016 E3.93758
G1 X42.761 Y44.614 E4.51474
G1 X42.289 Y45.068 E5.06893
G1 X42.187 Y45.133 E5.17128
G1 X42.187 Y50.487 E9.70194
G1 X43.173 Y50.585 E10.54042
G1 X44.016 Y50.502 E11.25723
G1 X44.614 Y50.174 E11.83439
G1 X45.068 Y49.701 E12.38919
G1 X45.427 Y49.134 E12.95709
G1 X45.693 Y48.473 E13.56003
G1 X45.835 Y47.688 E14.23509
G1 X45.812 Y46.738 E15.03923
G1 X45.708 Y45.708 E15.91527
G1 X45.792 Y44.866 E16.63132
G1 X46.12 Y44.267 E17.20922
G1 X46.593 Y43.813 E17.76402
G1 X47.16 Y43.454 E18.33192
G1 X47.821 Y43.188 E18.93486
G1 X48.606 Y43.047 E19.60977
G1 X49.556 Y43.07 E20.41391
G1 X50.585 Y43.173 E21.28902
G1 X51.428 Y43.089 E22.00592
G1 X52.027 Y42.761 E22.58382
G1 X52.481 Y42.289 E23.13801
G1 X52.545 Y42.187 E23.23991
G1 X57.813 Y42.187 E27.6978
G1 X57.813 Y43.182 E28.53979
;LAYER_CHANGE
;Z:5.5
;HEIGHT:1
G1 Z5.5 F9000
G92 E0
G1 X59.34 Y59.34
;TYPE:Perimeter
G1 F3600
G1 X40.66 Y59.34 E15.80739
G1 X40.66 Y40.66 E31.61478
G1 X59.34 Y40.66 E47.42217
G1 X59.34 Y59.04 E62.9757
G92 E0
G1 X61.375 Y61.375 F9000
;TYPE:External perimeter
G1 F3600
G1 X38.625 Y61.375 E19.25151
G1 X38.625 Y38.625 E38.50302
G1 X61.375 Y38.625 E57.75453
G1 X61.375 Y61.075 E76.75217
G1 X59.443 Y60.857 F9000
G92 E0
G1 X53.74 Y57.813
;TYPE:Internal infill
G1 F7200
G1 X57.226 Y57.813 E2.94992
G1 X57.227 Y57.227 E3.44581
G1 X57.28 Y56.354 E4.18592
G1 X57.5 Y55.647 E4.81249
G1 X57.813 Y55.162 E5.30095
G1 X57.813 Y49.814 E9.82654
G1 X57.227 Y49.815 E10.32243
G1 X56.354 Y49.868 E11.06254
G1 X55.647 Y50.088 E11.68911
G1 X55.084 Y50.451 E12.25598
G1 X54.626 Y50.919 E12.8101
G1 X54.261 Y51.481 E13.37717
G1 X54.006 Y52.153 E13.9854
G1 X53.893 Y52.966 E14.67999
G1 X53.891 Y53.891 E15.46275
G1 X53.838 Y54.765 E16.20371
G1 X53.619 Y55.472 E16.83003
G1 X53.255 Y56.035 E17.39735
G1 X52.787 Y56.493 E17.95147
G1 X52.225 Y56.858 E18.51854
G1 X51.553 Y57.112 E19.12647
G1 X50.74 Y57.226 E19.82118
G1 X49.815 Y57.227 E20.60393
G1 X48.941 Y57.28 E21.34489
G1 X48.234 Y57.5 E21.97146
G1 X47.75 Y57.813 E22.45921
G1 X42.402 Y57.813 E26.9848
G1 X42.403 Y57.227 E27.48069
G1 X42.456 Y56.354 E28.2208
G1 X42.675 Y55.647 E28.84712
G1 X43.039 Y55.084 E29.41444
G1 X43.507 Y54.626 E29.96856
G1 X44.069 Y54.261 E30.53563
G1 X44.741 Y54.006 E31.14386
G1 X45.554 Y53.893 E31.83845
G1 X46.479 Y53.891 E32.62121
G1 X47.352 Y53.838 E33.36132
G1 X48.059 Y53.619 E33.98764
G1 X48.622 Y53.255 E34.55496
G1 X49.081 Y52.787 E35.10967
G1 X49.446 Y52.225 E35.67674
G1 X49.7 Y51.553 E36.28467
G1 X49.813 Y50.74 E36.97926
G1 X49.815 Y49.815 E37.76202
G1 X49.868 Y48.941 E38.50298
G1 X50.088 Y48.234 E39.12955
G1 X50.451 Y47.672 E39.6957
G1 X50.919 Y47.213 E40.25041
G1 X51.481 Y46.848 E40.81748
G1 X52.153 Y46.594 E41.42541
G1 X52.966 Y46.481 E42.12
G1 X53.891 Y46.479 E42.90276
G1 X54.765 Y46.426 E43.64372
G1 X55.472 Y46.206 E44.27029
G1 X56.035 Y45.843 E44.83716
G1 X56.493 Y45.374 E45.39189
G1 X56.858 Y44.813 E45.95825
G1 X57.112 Y44.141 E46.56618
G1 X57.226 Y43.328 E47.26089
G1 X57.24 Y42.187 E48.2265
G1 X51.819 Y42.187 E52.81386
G1 X51.553 Y42.288 E53.05463
G1 X50.74 Y42.401 E53.74922
G1 X49.815 Y42.403 E54.53198
G1 X48.941 Y42.456 E55.27294
G1 X48.234 Y42.675 E55.89926
G1 X47.672 Y43.039 E56.46587
G1 X47.213 Y43.507 E57.02058
G1 X46.848 Y44.069 E57.58765
G1 X46.594 Y44.741 E58.19558
G1 X46.481 Y45.554 E58.89017
G1 X46.479 Y46.479 E59.67293
G1 X46.426 Y47.352 E60.41304
G1 X46.206 Y48.059 E61.03961
G1 X45.843 Y48.622 E61.60648
G1 X45.374 Y49.081 E62.1618
G1 X44.813 Y49.446 E62.72816
G1 X44.141 Y49.7 E63.33609
G1 X43.328 Y49.813 E64.03068
G1 X42.187 Y49.828 E64.9963
G1 X42.187 Y44.407 E69.58366
G1 X42.288 Y44.141 E69.82443
G1 X42.401 Y43.328 E70.51902
G1 X42.416 Y42.187 E71.48464
G1 X46.227 Y42.187 E74.70959
;LAYER_CHANGE
;Z:6.5
;HEIGHT:1
G1 Z6.5 F9000
G92 E0
G1 X59.34 Y59.34
;TYPE:Perimeter
G1 F3600
G1 X40.66 Y59.34 E15.80739
G1 X40.66 Y40.66 E31.61478
G1 X59.34 Y40.66 E47.42217
G1 X59.34 Y59.04 E62.9757
G92 E0
G1 X61.375 Y61.375 F9000
;TYPE:External perimeter
G1 F3600
G1 X38.625 Y61.375 E19.25151
G1 X38.625 Y38.625 E38.50302
G1 X61.375 Y38.625 E57.75453
G1 X61.375 Y61.075 E76.75217
G1 X59.443 Y60.857 F9000
G92 E0
G1 X57.813 Y55.588
;TYPE:Internal infill
G1 F7200
G1 X57.813 Y57.813 E1.88284
G1 X56.61 Y57.813 E2.90084
G1 X56.485 Y57.412 E3.25628
G1 X55.97 Y55.97 E4.55202
G1 X56.039 Y55.576 E4.8905
G1 X56.271 Y55.344 E5.16814
G1 X56.843 Y54.99 E5.73738
G1 X57.472 Y54.692 E6.32637
G1 X57.813 Y54.571 E6.63256
G1 X57.813 Y49.198 E11.1793
G1 X57.412 Y49.073 E11.53474
G1 X55.97 Y48.558 E12.83048
G1 X55.576 Y48.627 E13.16896
G1 X55.344 Y48.858 E13.44601
G1 X54.99 Y49.431 E14.01597
G1 X54.692 Y50.06 E14.60496
G1 X54.449 Y50.743 E15.21842
G1 X54.296 Y51.516 E15.88524
G1 X54.31 Y52.457 E16.68162
G1 X54.424 Y53.034 E17.17933
G1 X54.634 Y53.707 E17.77592
G1 X55.148 Y55.148 E19.07058
G1 X55.079 Y55.542 E19.40906
G1 X54.848 Y55.775 E19.68671
G1 X54.275 Y56.128 E20.25622
G1 X53.647 Y56.426 E20.84444
G1 X52.963 Y56.669 E21.4587
G1 X52.19 Y56.823 E22.12568
G1 X51.249 Y56.808 E22.92207
G1 X50.672 Y56.695 E23.41961
G1 X49.999 Y56.485 E24.0162
G1 X48.558 Y55.97 E25.31114
G1 X48.164 Y56.039 E25.64962
G1 X47.932 Y56.271 E25.92726
G1 X47.578 Y56.843 E26.4965
G1 X47.28 Y57.472 E27.08549
G1 X47.158 Y57.813 E27.39196
G1 X42.187 Y57.813 E31.59852
G1 X42.187 Y55.928 E33.19365
G92 E0
G1 X42.187 Y47.912 F9000
G1 F7200
G1 X42.187 Y42.187 E4.84461
G1 X47.498 Y42.187 E9.33889
G1 X47.28 Y42.647 E9.76965
G1 X47.037 Y43.331 E10.38391
G1 X46.883 Y44.104 E11.05089
G1 X46.898 Y45.045 E11.84728
G1 X47.011 Y45.622 E12.34482
G1 X47.221 Y46.295 E12.94141
G1 X47.736 Y47.736 E14.23635
G1 X47.667 Y48.13 E14.57483
G1 X47.436 Y48.362 E14.85188
G1 X46.863 Y48.716 E15.42184
G1 X46.234 Y49.014 E16.01083
G1 X45.551 Y49.257 E16.62429
G1 X44.778 Y49.41 E17.29111
G1 X43.837 Y49.396 E18.08749
G1 X43.26 Y49.282 E18.5852
G1 X42.187 Y48.93 E19.5408
G1 X42.187 Y54.911 E24.60204
G1 X42.647 Y54.692 E25.03316
G1 X43.331 Y54.449 E25.64742
G1 X44.104 Y54.296 E26.31424
G1 X45.045 Y54.31 E27.11062
G1 X45.622 Y54.424 E27.60833
G1 X46.295 Y54.634 E28.20492
G1 X47.736 Y55.148 E29.49958
G1 X48.13 Y55.079 E29.83806
G1 X48.362 Y54.848 E30.11511
G1 X48.716 Y54.275 E30.68507
G1 X49.014 Y53.647 E31.27329
G1 X49.257 Y52.963 E31.88755
G1 X49.41 Y52.19 E32.55437
G1 X49.396 Y51.249 E33.35075
G1 X49.282 Y50.672 E33.84846
G1 X49.073 Y49.999 E34.4448
G1 X48.558 Y48.558 E35.73974
G1 X48.627 Y48.164 E36.07822
G1 X48.858 Y47.932 E36.35527
G1 X49.431 Y47.578 E36.92523
G1 X50.06 Y47.28 E37.51422
G1 X50.743 Y47.037 E38.12768
G1 X51.516 Y46.883 E38.79466
G1 X52.457 Y46.898 E39.59105
G1 X53.034 Y47.011 E40.08859
G1 X53.707 Y47.221 E40.68518
G1 X55.148 Y47.736 E41.98012
G1 X55.542 Y47.667 E42.3186
G1 X55.775 Y47.436 E42.59625
G1 X56.128 Y46.863 E43.16576
G1 X56.426 Y46.234 E43.75475
G1 X56.669 Y45.551 E44.36821
G1 X56.823 Y44.778 E45.03519
G1 X56.808 Y43.837 E45.83158
G1 X56.695 Y43.26 E46.32912
G1 X56.342 Y42.187 E47.28499
G1 X48.516 Y42.187 E53.90751
;LAYER_CHANGE
;Z:7.5
;HEIGHT:1
G1 Z7.5 F9000
G92 E0
G1 X59.34 Y59.34
;TYPE:Perimeter
G1 F3600
G1 X40.66 Y59.34 E15.80739
G1 X40.66 Y40.66 E31.61478
G1 X59.34 Y40.66 E47.42217
G1 X59.34 Y59.04 E62.9757
G92 E0
G1 X61.375 Y61.375 F9000
;TYPE:External perimeter
G1 F3600
G1 X38.625 Y61.375 E19.25151
G1 X38.625 Y38.625 E38.50302
G1 X61.375 Y38.625 E57.75453
G1 X61.375 Y61.075 E76.75217
G1 X59.443 Y60.857 F9000
G92 E0
G1 X57.813 Y54.976
;TYPE:Internal infill
G1 F7200
G1 X57.813 Y57.813 E2.40073
G1 X56.03 Y57.813 E3.90954
G1 X55.521 Y57.45 E4.43858
G1 X54.835 Y57.21 E5.05359
G1 X53.968 Y57.15 E5.78902
G1 X53.027 Y57.165 E6.58541
G1 X52.19 Y57.076 E7.29769
G1 X51.495 Y56.844 E7.91772
G1 X50.913 Y56.5 E8.48982
G1 X50.424 Y56.062 E9.04535
G1 X50.038 Y55.521 E9.60774
G1 X49.798 Y54.835 E10.22275
G1 X49.738 Y53.968 E10.95818
G1 X49.752 Y53.027 E11.75456
G1 X49.663 Y52.19 E12.46684
G1 X49.432 Y51.495 E13.0866
G1 X49.087 Y50.913 E13.65913
G1 X48.65 Y50.424 E14.21409
G1 X48.109 Y50.038 E14.77648
G1 X47.423 Y49.798 E15.39149
G1 X46.556 Y49.738 E16.12692
G1 X45.615 Y49.752 E16.9233
G1 X44.777 Y49.663 E17.63642
G1 X44.083 Y49.432 E18.25538
G1 X43.5 Y49.087 E18.82864
G1 X43.011 Y48.65 E19.3836
G1 X42.626 Y48.109 E19.9455
G1 X42.385 Y47.423 E20.56079
G1 X42.325 Y46.556 E21.29622
G1 X42.34 Y45.615 E22.09261
G1 X42.251 Y44.777 E22.80573
G1 X42.187 Y44.585 E22.97699
G1 X42.187 Y42.187 E25.00623
G1 X46.546 Y42.187 E28.6949
G1 X46.542 Y43.267 E29.60882
G1 X46.63 Y44.104 E30.32101
G1 X46.862 Y44.799 E30.94104
G1 X47.206 Y45.381 E31.51314
G1 X47.644 Y45.87 E32.06867
G1 X48.185 Y46.256 E32.63106
G1 X48.871 Y46.496 E33.24607
G1 X49.738 Y46.556 E33.9815
G1 X50.679 Y46.542 E34.77788
G1 X51.517 Y46.63 E35.49091
G1 X52.211 Y46.862 E36.11013
G1 X52.794 Y47.206 E36.68296
G1 X53.283 Y47.644 E37.23849
G1 X53.668 Y48.185 E37.80039
G1 X53.909 Y48.871 E38.41568
G1 X53.968 Y49.738 E39.15105
G1 X53.954 Y50.679 E39.94743
G1 X54.043 Y51.517 E40.66055
G1 X54.274 Y52.211 E41.27951
G1 X54.619 Y52.794 E41.85277
G1 X55.056 Y53.283 E42.40773
G1 X55.597 Y53.668 E42.96963
G1 X56.283 Y53.909 E43.58492
G1 X57.15 Y53.968 E44.32029
G1 X57.813 Y53.958 E44.8814
G1 X57.813 Y48.618 E49.40022
G1 X57.45 Y48.109 E49.92926
G1 X57.21 Y47.423 E50.54427
G1 X57.15 Y46.556 E51.2797
G1 X57.165 Y45.615 E52.07609
G1 X57.076 Y44.777 E52.78921
G1 X56.844 Y44.083 E53.40843
G1 X56.5 Y43.5 E53.98126
G1 X56.062 Y43.011 E54.53679
G1 X55.521 Y42.626 E55.09869
G1 X54.835 Y42.385 E55.71398
G1 X53.968 Y42.325 E56.44941
G1 X53.027 Y42.34 E57.2458
G1 X52.19 Y42.251 E57.95808
G1 X51.997 Y42.187 E58.13015
G1 X47.564 Y42.187 E61.88144
G92 E0
G1 X42.187 Y50.097 F9000
G1 F7200
G1 X42.187 Y53.959 E3.2681
G1 X43.266 Y53.954 E4.18118
G1 X44.104 Y54.043 E4.8943
G1 X44.799 Y54.274 E5.51406
G1 X45.381 Y54.619 E6.08659
G1 X45.87 Y55.056 E6.64155
G1 X46.256 Y55.597 E7.20394
G1 X46.496 Y56.283 E7.81895
G1 X46.556 Y57.15 E8.55438
G1 X46.546 Y57.813 E9.11549
G1 X42.187 Y57.813 E12.80416
G1 X42.187 Y54.976 E15.20489
;LAYER_CHANGE
;Z:8.5
;HEIGHT:1
G1 Z8.5 F9000
G92 E0
G1 X59.34 Y59.34
;TYPE:Perimeter
G1 F3600
G1 X40.66 Y59.34 E15.80739
G1 X40.66 Y40.66 E31.61478
G1 X59.34 Y40.66 E47.42217
G1 X59.34 Y59.04 E62.9757
G92 E0
G1 X61.375 Y61.375 F9000
;TYPE:External perimeter
G1 F3600
G1 X38.625 Y61.375 E19.25151
G1 X38.625 Y38.625 E38.50302
