; generated by PrusaSlicer 2.6.0-alpha4+win64 on 2024-07-22 at 14:49:01 UTC

; This is a profile based on the E3D ToolChanger and the Hemera (Formerly Hermes) dual-drive direct extruder

; external perimeters extrusion width = 5.06mm
; perimeters extrusion width = 5.06mm
; infill extrusion width = 5.06mm
; solid infill extrusion width = 5.06mm
; top infill extrusion width = 4.50mm

M106 S0
M190 S60 ; set bed temperature and wait for it to be reached
M104 S215 ; set temperature
;TYPE:Custom
M109 S215 ; set temperature and wait for it to be reached
G21 ; set units to millimeters
G90 ; use absolute coordinates
M82 ; use absolute distances for extrusion
G92 E0
M106 S0
;LAYER_CHANGE
;Z:1.5
;HEIGHT:1.5
G1 Z1.5 F9000
G1 X72.687 Y72.687
;TYPE:Perimeter
;WIDTH:5.0625
G1 F1800
G1 X27.313 Y72.687 E134.14219
G1 X27.313 Y27.313 E268.28438
G1 X72.687 Y27.313 E402.42657
G1 X72.687 Y72.012 E534.57321
G92 E0
G1 X77.428 Y77.428 F9000
;TYPE:External perimeter
G1 F1800
G1 X22.572 Y77.428 E162.17446
G1 X22.572 Y22.572 E324.34892
G1 X77.428 Y22.572 E486.52338
G1 X77.428 Y76.753 E646.70229
G1 X73.081 Y76.263 F9000
G92 E0
G1 X69.113 Y71.265
;TYPE:Solid infill
;WIDTH:5.10014
G1 F1800
G1 X69.113 Y30.868 E120.37662
G1 X64.335 Y30.868 E134.6143
G1 X64.335 Y69.132 E248.63492
G1 X59.556 Y69.132 E262.87558
G1 X59.556 Y30.868 E376.8962
G1 X54.778 Y30.868 E391.13388
G1 X54.778 Y69.132 E505.1545
G1 X50 Y69.132 E519.39218
G1 X50 Y30.868 E633.4128
G1 X45.222 Y30.868 E647.65048
G1 X45.222 Y69.132 E761.6711
G1 X40.443 Y69.132 E775.91176
G1 X40.443 Y30.868 E889.93238
G1 X35.665 Y30.868 E904.17006
G1 X35.665 Y69.132 E1018.19068
G1 X30.887 Y69.132 E1032.42836
G1 X30.887 Y28.735 E1152.80498
;LAYER_CHANGE
;Z:3
;HEIGHT:1.5
G1 Z3 F9000
G92 E0
G1 X72.687 Y72.687
;TYPE:Perimeter
;WIDTH:5.0625
G1 F3600
G1 X27.313 Y72.687 E134.14219
G1 X27.313 Y27.313 E268.28438
G1 X72.687 Y27.313 E402.42657
G1 X72.687 Y72.012 E534.57321
G92 E0
G1 X77.428 Y77.428 F9000
;TYPE:External perimeter
G1 F3600
G1 X22.572 Y77.428 E162.17446
G1 X22.572 Y22.572 E324.34892
G1 X77.428 Y22.572 E486.52338
G1 X77.428 Y76.753 E646.70229
G1 X73.081 Y76.263 F9000
G92 E0
G1 X71.265 Y30.887
;TYPE:Solid infill
;WIDTH:5.10014
G1 F3600
G1 X30.868 Y30.887 E120.37655
G1 X30.868 Y35.665 E134.61422
G1 X69.132 Y35.665 E248.63477
G1 X69.132 Y40.443 E262.87244
G1 X30.868 Y40.443 E376.89299
G1 X30.868 Y45.222 E391.13364
G1 X69.132 Y45.222 E505.15419
G1 X69.132 Y50 E519.39186
G1 X30.868 Y50 E633.41241
G1 X30.868 Y54.778 E647.65008
G1 X69.132 Y54.778 E761.67063
G1 X69.132 Y59.556 E775.9083
G1 X30.868 Y59.556 E889.92885
G1 X30.868 Y64.335 E904.1695
G1 X69.132 Y64.335 E1018.19005
G1 X69.132 Y69.113 E1032.42772
G1 X28.735 Y69.113 E1152.80427
;LAYER_CHANGE
;Z:4.5
;HEIGHT:1.5
G1 Z4.5 F9000
G92 E0
G1 X72.687 Y72.687
;TYPE:Perimeter
;WIDTH:5.0625
G1 F3600
G1 X27.313 Y72.687 E134.14219
G1 X27.313 Y27.313 E268.28438
G1 X72.687 Y27.313 E402.42657
G1 X72.687 Y72.012 E534.57321
G92 E0
G1 X77.428 Y77.428 F9000
;TYPE:External perimeter
G1 F3600
G1 X22.572 Y77.428 E162.17446
G1 X22.572 Y22.572 E324.34892
G1 X77.428 Y22.572 E486.52338
G1 X77.428 Y76.753 E646.70229
G1 X73.081 Y76.263 F9000
G92 E0
G1 X69.113 Y71.265
;TYPE:Solid infill
;WIDTH:5.10014
G1 F3600
G1 X69.113 Y30.868 E120.37657
G1 X64.335 Y30.868 E134.61424
G1 X64.335 Y69.132 E248.63481
G1 X59.556 Y69.132 E262.87546
G1 X59.556 Y30.868 E376.89603
G1 X54.778 Y30.868 E391.1337
G1 X54.778 Y69.132 E505.15427
G1 X50 Y69.132 E519.39194
G1 X50 Y30.868 E633.41251
G1 X45.222 Y30.868 E647.65018
G1 X45.222 Y69.132 E761.67075
G1 X40.443 Y69.132 E775.9114
G1 X40.443 Y30.868 E889.93197
G1 X35.665 Y30.868 E904.16964
G1 X35.665 Y69.132 E1018.19021
G1 X30.887 Y69.132 E1032.42788
G1 X30.887 Y28.735 E1152.80445
;LAYER_CHANGE
;Z:6
;HEIGHT:1.5
G1 Z6 F9000
G92 E0
G1 X72.687 Y72.687
;TYPE:Perimeter
;WIDTH:5.0625
G1 F3600
G1 X27.313 Y72.687 E134.14219
G1 X27.313 Y27.313 E268.28438
G1 X72.687 Y27.313 E402.42657
G1 X72.687 Y72.012 E534.57321
G92 E0
G1 X77.428 Y77.428 F9000
;TYPE:External perimeter
G1 F3600
G1 X22.572 Y77.428 E162.17446
G1 X22.572 Y22.572 E324.34892
G1 X77.428 Y22.572 E486.52338
G1 X77.428 Y76.753 E646.70229
G1 X73.081 Y76.263 F9000
G92 E0
G1 X71.265 Y30.887
;TYPE:Internal infill
G1 F5906.429
G1 X30.868 Y30.887 E119.42835
G1 X30.868 Y35.665 E133.55387
G1 X69.132 Y35.665 E246.67629
G1 X69.132 Y40.443 E260.80181
G1 X30.868 Y40.443 E373.92423
G1 X30.868 Y45.222 E388.05271
G1 X69.132 Y45.222 E501.17513
G1 X69.132 Y50 E515.30065
G1 X30.868 Y50 E628.42307
G1 X30.868 Y54.778 E642.54859
G1 X69.132 Y54.778 E755.67101
G1 X69.132 Y59.556 E769.79653
G1 X30.868 Y59.556 E882.91895
G1 X30.868 Y64.335 E897.04743
G1 X69.132 Y64.335 E1010.16985
G1 X69.132 Y69.113 E1024.29537
G1 X28.735 Y69.113 E1143.72372
;LAYER_CHANGE
;Z:7.5
;HEIGHT:1.5
G1 Z7.5 F9000
G92 E0
G1 X72.687 Y72.687
;TYPE:Perimeter
G1 F3600
G1 X27.313 Y72.687 E134.14219
G1 X27.313 Y27.313 E268.28438
G1 X72.687 Y27.313 E402.42657
G1 X72.687 Y72.012 E534.57321
G92 E0
G1 X77.428 Y77.428 F9000
;TYPE:External perimeter
G1 F3600
G1 X22.572 Y77.428 E162.17446
G1 X22.572 Y22.572 E324.34892
G1 X77.428 Y22.572 E486.52338
G1 X77.428 Y76.753 E646.70229
G1 X73.081 Y76.263 F9000
G92 E0
G1 X69.113 Y71.265
;TYPE:Internal infill
G1 F5906.429
G1 X69.113 Y30.868 E119.42835
G1 X64.335 Y30.868 E133.55387
G1 X64.335 Y69.132 E246.67629
G1 X59.556 Y69.132 E260.80477
G1 X59.556 Y30.868 E373.92719
G1 X54.778 Y30.868 E388.05271
G1 X54.778 Y69.132 E501.17513
G1 X50 Y69.132 E515.30065
G1 X50 Y30.868 E628.42307
G1 X45.222 Y30.868 E642.54859
G1 X45.222 Y69.132 E755.67101
G1 X40.443 Y69.132 E769.79949
G1 X40.443 Y30.868 E882.92191
G1 X35.665 Y30.868 E897.04743
G1 X35.665 Y69.132 E1010.16985
G1 X30.887 Y69.132 E1024.29537
G1 X30.887 Y28.735 E1143.72372
;LAYER_CHANGE
;Z:9
;HEIGHT:1.5
G1 Z9 F9000
G92 E0
G1 X72.687 Y72.687
;TYPE:Perimeter
G1 F3600
G1 X27.313 Y72.687 E134.14219
G1 X27.313 Y27.313 E268.28438
G1 X72.687 Y27.313 E402.42657
G1 X72.687 Y72.012 E534.57321
G92 E0
G1 X77.428 Y77.428 F9000
;TYPE:External perimeter
G1 F3600
G1 X22.572 Y77.428 E162.17446
G1 X22.572 Y22.572 E324.34892
G1 X77.428 Y22.572 E486.52338
G1 X77.428 Y76.753 E646.70229
G1 X73.081 Y76.263 F9000
G92 E0
G1 X71.265 Y30.887
;TYPE:Internal infill
G1 F5906.429
G1 X30.868 Y30.887 E119.42835
G1 X30.868 Y35.665 E133.55387
G1 X69.132 Y35.665 E246.67629
G1 X69.132 Y40.443 E260.80181
G1 X30.868 Y40.443 E373.92423
G1 X30.868 Y45.222 E388.05271
G1 X69.132 Y45.222 E501.17513
G1 X69.132 Y50 E515.30065
G1 X30.868 Y50 E628.42307
G1 X30.868 Y54.778 E642.54859
G1 X69.132 Y54.778 E755.67101
G1 X69.132 Y59.556 E769.79653
G1 X30.868 Y59.556 E882.91895
G1 X30.868 Y64.335 E897.04743
G1 X69.132 Y64.335 E1010.16985
G1 X69.132 Y69.113 E1024.29537
G1 X28.735 Y69.113 E1143.72372
;LAYER_CHANGE
;Z:10.5
;HEIGHT:1.5
G1 Z10.5 F9000
G92 E0
G1 X72.687 Y72.687
;TYPE:Perimeter
G1 F3600
G1 X27.313 Y72.687 E134.14219
G1 X27.313 Y27.313 E268.28438
G1 X72.687 Y27.313 E402.42657
G1 X72.687 Y72.012 E534.57321
G92 E0
G1 X77.428 Y77.428 F9000
;TYPE:External perimeter
G1 F3600
G1 X22.572 Y77.428 E162.17446
G1 X22.572 Y22.572 E324.34892
G1 X77.428 Y22.572 E486.52338
G1 X77.428 Y76.753 E646.70229
G1 X73.081 Y76.263 F9000
G92 E0
G1 X69.113 Y71.265
;TYPE:Internal infill
G1 F5906.429
G1 X69.113 Y30.868 E119.42835
G1 X64.335 Y30.868 E133.55387
G1 X64.335 Y69.132 E246.67629
G1 X59.556 Y69.132 E260.80477
G1 X59.556 Y30.868 E373.92719
G1 X54.778 Y30.868 E388.05271
G1 X54.778 Y69.132 E501.17513
G1 X50 Y69.132 E515.30065
G1 X50 Y30.868 E628.42307
G1 X45.222 Y30.868 E642.54859
G1 X45.222 Y69.132 E755.67101
G1 X40.443 Y69.132 E769.79949
G1 X40.443 Y30.868 E882.92191
G1 X35.665 Y30.868 E897.04743
G1 X35.665 Y69.132 E1010.16985
G1 X30.887 Y69.132 E1024.29537
G1 X30.887 Y28.735 E1143.72372
;LAYER_CHANGE
;Z:12
;HEIGHT:1.5
G1 Z12 F9000
G92 E0
G1 X72.687 Y72.687
;TYPE:Perimeter
G1 F3600
G1 X27.313 Y72.687 E134.14219
G1 X27.313 Y27.313 E268.28438
G1 X72.687 Y27.313 E402.42657
G1 X72.687 Y72.012 E534.57321
G92 E0
G1 X77.428 Y77.428 F9000
;TYPE:External perimeter
G1 F3600
G1 X22.572 Y77.428 E162.17446
G1 X22.572 Y22.572 E324.34892
G1 X77.428 Y22.572 E486.52338
G1 X77.428 Y76.753 E646.70229
G1 X73.081 Y76.263 F9000
G92 E0
G1 X71.265 Y30.887
;TYPE:Internal infill
G1 F5906.429
G1 X30.868 Y30.887 E119.42835
G1 X30.868 Y35.665 E133.55387
G1 X69.132 Y35.665 E246.67629
G1 X69.132 Y40.443 E260.80181
G1 X30.868 Y40.443 E373.92423
G1 X30.868 Y45.222 E388.05271
G1 X69.132 Y45.222 E501.17513
G1 X69.132 Y50 E515.30065
G1 X30.868 Y50 E628.42307
G1 X30.868 Y54.778 E642.54859
G1 X69.132 Y54.778 E755.67101
G1 X69.132 Y59.556 E769.79653
G1 X30.868 Y59.556 E882.91895
G1 X30.868 Y64.335 E897.04743
G1 X69.132 Y64.335 E1010.16985
G1 X69.132 Y69.113 E1024.29537
G1 X28.735 Y69.113 E1143.72372
;LAYER_CHANGE
;Z:13.5
;HEIGHT:1.5
G1 Z13.5 F9000
G92 E0
G1 X72.687 Y72.687
;TYPE:Perimeter
G1 F3600
G1 X27.313 Y72.687 E134.14219
G1 X27.313 Y27.313 E268.28438
G1 X72.687 Y27.313 E402.42657
G1 X72.687 Y72.012 E534.57321
G92 E0
G1 X77.428 Y77.428 F9000
;TYPE:External perimeter
G1 F3600
G1 X22.572 Y77.428 E162.17446
G1 X22.572 Y22.572 E324.34892
G1 X77.428 Y22.572 E486.52338
G1 X77.428 Y76.753 E646.70229
G1 X73.081 Y76.263 F9000
G92 E0
G1 X69.113 Y71.265
;TYPE:Internal infill
G1 F5906.429
G1 X69.113 Y30.868 E119.42835
G1 X64.335 Y30.868 E133.55387
G1 X64.335 Y69.132 E246.67629
G1 X59.556 Y69.132 E260.80477
G1 X59.556 Y30.868 E373.92719
G1 X54.778 Y30.868 E388.05271
G1 X54.778 Y69.132 E501.17513
G1 X50 Y69.132 E515.30065
G1 X50 Y30.868 E628.42307
G1 X45.222 Y30.868 E642.54859
G1 X45.222 Y69.132 E755.67101
G1 X40.443 Y69.132 E769.79949
G1 X40.443 Y30.868 E882.92191
G1 X35.665 Y30.868 E897.04743
G1 X35.665 Y69.132 E1010.16985
G1 X30.887 Y69.132 E1024.29537
G1 X30.887 Y28.735 E1143.72372
;LAYER_CHANGE
;Z:15
;HEIGHT:1.5
G1 Z15 F9000
G92 E0
G1 X72.687 Y72.687
;TYPE:Perimeter
G1 F3600
G1 X27.313 Y72.687 E134.14219
G1 X27.313 Y27.313 E268.28438
G1 X72.687 Y27.313 E402.42657
G1 X72.687 Y72.012 E534.57321
G92 E0
G1 X77.428 Y77.428 F9000
;TYPE:External perimeter
G1 F3600
G1 X22.572 Y77.428 E162.17446
G1 X22.572 Y22.572 E324.34892
G1 X77.428 Y22.572 E486.52338
G1 X77.428 Y76.753 E646.70229
G1 X73.081 Y76.263 F9000
G92 E0
G1 X71.265 Y30.887
;TYPE:Internal infill
G1 F5906.429
G1 X30.868 Y30.887 E119.42835
G1 X30.868 Y35.665 E133.55387
G1 X69.132 Y35.665 E246.67629
G1 X69.132 Y40.443 E260.80181
G1 X30.868 Y40.443 E373.92423
G1 X30.868 Y45.222 E388.05271
G1 X69.132 Y45.222 E501.17513
G1 X69.132 Y50 E515.30065
G1 X30.868 Y50 E628.42307
G1 X30.868 Y54.778 E642.54859
G1 X69.132 Y54.778 E755.67101
G1 X69.132 Y59.556 E769.79653
G1 X30.868 Y59.556 E882.91895
G1 X30.868 Y64.335 E897.04743
G1 X69.132 Y64.335 E1010.16985
G1 X69.132 Y69.113 E1024.29537
G1 X28.735 Y69.113 E1143.72372
;LAYER_CHANGE
;Z:16.5
;HEIGHT:1.5
G1 Z16.5 F9000
G92 E0
G1 X72.687 Y72.687
;TYPE:Perimeter
G1 F3600
G1 X27.313 Y72.687 E134.14219
G1 X27.313 Y27.313 E268.28438
G1 X72.687 Y27.313 E402.42657
G1 X72.687 Y72.012 E534.57321
G92 E0
G1 X77.428 Y77.428 F9000
;TYPE:External perimeter
G1 F3600
G1 X22.572 Y77.428 E162.17446
G1 X22.572 Y22.572 E324.34892
G1 X77.428 Y22.572 E486.52338
G1 X77.428 Y76.753 E646.70229
G1 X73.081 Y76.263 F9000
G92 E0
G1 X69.113 Y71.265
;TYPE:Internal infill
G1 F5906.429
G1 X69.113 Y30.868 E119.42835
G1 X64.335 Y30.868 E133.55387
G1 X64.335 Y69.132 E246.67629
G1 X59.556 Y69.132 E260.80477
G1 X59.556 Y30.868 E373.92719
G1 X54.778 Y30.868 E388.05271
G1 X54.778 Y69.132 E501.17513
G1 X50 Y69.132 E515.30065
G1 X50 Y30.868 E628.42307
G1 X45.222 Y30.868 E642.54859
G1 X45.222 Y69.132 E755.67101
G1 X40.443 Y69.132 E769.79949
G1 X40.443 Y30.868 E882.92191
G1 X35.665 Y30.868 E897.04743
G1 X35.665 Y69.132 E1010.16985
G1 X30.887 Y69.132 E1024.29537
G1 X30.887 Y28.735 E1143.72372
;LAYER_CHANGE
;Z:18
;HEIGHT:1.5
G1 Z18 F9000
G92 E0
G1 X72.687 Y72.687
;TYPE:Perimeter
G1 F3600
G1 X27.313 Y72.687 E134.14219
G1 X27.313 Y27.313 E268.28438
G1 X72.687 Y27.313 E402.42657
G1 X72.687 Y72.012 E534.57321
G92 E0
G1 X77.428 Y77.428 F9000
;TYPE:External perimeter
G1 F3600
G1 X22.572 Y77.428 E162.17446
G1 X22.572 Y22.572 E324.34892
G1 X77.428 Y22.572 E486.52338
G1 X77.428 Y76.753 E646.70229
G1 X73.081 Y76.263 F9000
G92 E0
G1 X71.265 Y30.887
;TYPE:Internal infill
G1 F5906.429
G1 X30.868 Y30.887 E119.42835
G1 X30.868 Y35.665 E133.55387
G1 X69.132 Y35.665 E246.67629
G1 X69.132 Y40.443 E260.80181
G1 X30.868 Y40.443 E373.92423
G1 X30.868 Y45.222 E388.05271
G1 X69.132 Y45.222 E501.17513
G1 X69.132 Y50 E515.30065
G1 X30.868 Y50 E628.42307
G1 X30.868 Y54.778 E642.54859
G1 X69.132 Y54.778 E755.67101
G1 X69.132 Y59.556 E769.79653
G1 X30.868 Y59.556 E882.91895
G1 X30.868 Y64.335 E897.04743
G1 X69.132 Y64.335 E1010.16985
G1 X69.132 Y69.113 E1024.29537
G1 X28.735 Y69.113 E1143.72372
;LAYER_CHANGE
;Z:19.5
;HEIGHT:1.5
G1 Z19.5 F9000
G92 E0
G1 X72.687 Y72.687
;TYPE:Perimeter
G1 F3600
G1 X27.313 Y72.687 E134.14219
G1 X27.313 Y27.313 E268.28438
G1 X72.687 Y27.313 E402.42657
G1 X72.687 Y72.012 E534.57321
G92 E0
G1 X77.428 Y77.428 F9000
;TYPE:External perimeter
G1 F3600
G1 X22.572 Y77.428 E162.17446
G1 X22.572 Y22.572 E324.34892
G1 X77.428 Y22.572 E486.52338
G1 X77.428 Y76.753 E646.70229
G1 X73.081 Y76.263 F9000
G92 E0
G1 X69.113 Y71.265
;TYPE:Internal infill
G1 F5906.429
G1 X69.113 Y30.868 E119.42835
G1 X64.335 Y30.868 E133.55387
G1 X64.335 Y69.132 E246.67629
G1 X59.556 Y69.132 E260.80477
G1 X59.556 Y30.868 E373.92719
G1 X54.778 Y30.868 E388.05271
G1 X54.778 Y69.132 E501.17513
G1 X50 Y69.132 E515.30065
G1 X50 Y30.868 E628.42307
G1 X45.222 Y30.868 E642.54859
G1 X45.222 Y69.132 E755.67101
G1 X40.443 Y69.132 E769.79949
G1 X40.443 Y30.868 E882.92191
G1 X35.665 Y30.868 E897.04743
G1 X35.665 Y69.132 E1010.16985
G1 X30.887 Y69.132 E1024.29537
G1 X30.887 Y28.735 E1143.72372
;LAYER_CHANGE
;Z:21
;HEIGHT:1.5
G1 Z21 F9000
G92 E0
G1 X72.687 Y72.687
;TYPE:Perimeter
G1 F3600
G1 X27.313 Y72.687 E134.14219
G1 X27.313 Y27.313 E268.28438
G1 X72.687 Y27.313 E402.42657
G1 X72.687 Y72.012 E534.57321
G92 E0
G1 X77.428 Y77.428 F9000
;TYPE:External perimeter
G1 F3600
G1 X22.572 Y77.428 E162.17446
G1 X22.572 Y22.572 E324.34892
G1 X77.428 Y22.572 E486.52338
G1 X77.428 Y76.753 E646.70229
G1 X73.081 Y76.263 F9000
G92 E0
G1 X71.265 Y30.887
;TYPE:Internal infill
G1 F5906.429
G1 X30.868 Y30.887 E119.42835
G1 X30.868 Y35.665 E133.55387
G1 X69.132 Y35.665 E246.67629
G1 X69.132 Y40.443 E260.80181
G1 X30.868 Y40.443 E373.92423
G1 X30.868 Y45.222 E388.05271
G1 X69.132 Y45.222 E501.17513
G1 X69.132 Y50 E515.30065
G1 X30.868 Y50 E628.42307
G1 X30.868 Y54.778 E642.54859
G1 X69.132 Y54.778 E755.67101
G1 X69.132 Y59.556 E769.79653
G1 X30.868 Y59.556 E882.91895
G1 X30.868 Y64.335 E897.04743
G1 X69.132 Y64.335 E1010.16985
G1 X69.132 Y69.113 E1024.29537
G1 X28.735 Y69.113 E1143.72372
;LAYER_CHANGE
;Z:22.5
;HEIGHT:1.5
G1 Z22.5 F9000
G92 E0
G1 X72.687 Y72.687
;TYPE:Perimeter
G1 F3600
G1 X27.313 Y72.687 E134.14219
G1 X27.313 Y27.313 E268.28438
G1 X72.687 Y27.313 E402.42657
G1 X72.687 Y72.012 E534.57321
G92 E0
G1 X77.428 Y77.428 F9000
;TYPE:External perimeter
G1 F3600
G1 X22.572 Y77.428 E162.17446
G1 X22.572 Y22.572 E324.34892
G1 X77.428 Y22.572 E486.52338
G1 X77.428 Y76.753 E646.70229
G1 X73.081 Y76.263 F9000
G92 E0
G1 X69.113 Y71.265
;TYPE:Internal infill
G1 F5906.429
G1 X69.113 Y30.868 E119.42835
G1 X64.335 Y30.868 E133.55387
G1 X64.335 Y69.132 E246.67629
G1 X59.556 Y69.132 E260.80477
G1 X59.556 Y30.868 E373.92719
G1 X54.778 Y30.868 E388.05271
G1 X54.778 Y69.132 E501.17513
G1 X50 Y69.132 E515.30065
G1 X50 Y30.868 E628.42307
G1 X45.222 Y30.868 E642.54859
G1 X45.222 Y69.132 E755.67101
G1 X40.443 Y69.132 E769.79949
G1 X40.443 Y30.868 E882.92191
G1 X35.665 Y30.868 E897.04743
G1 X35.665 Y69.132 E1010.16985
G1 X30.887 Y69.132 E1024.29537
G1 X30.887 Y28.735 E1143.72372
;LAYER_CHANGE
;Z:24
;HEIGHT:1.5
G1 Z24 F9000
G92 E0
G1 X72.687 Y72.687
;TYPE:Perimeter
G1 F3600
G1 X27.313 Y72.687 E134.14219
G1 X27.313 Y27.313 E268.28438
G1 X72.687 Y27.313 E402.42657
G1 X72.687 Y72.012 E534.57321
G92 E0
G1 X77.428 Y77.428 F9000
;TYPE:External perimeter
G1 F3600
G1 X22.572 Y77.428 E162.17446
G1 X22.572 Y22.572 E324.34892
